src/images/profile.svg

<svg width="20" height="20" fill="none" xmlns="http://www.w3.org/2000/svg"><rect x=".5" y=".5" width="19" height="19" rx="9.5" fill="#fff" stroke="#fff"/><path fill="#fff" d="M4 4h12v12H4z"/><path d="M14.5 13.5v-7c0-.55-.45-1-1-1h-7c-.55 0-1 .45-1 1v7c0 .55.45 1 1 1h7c.55 0 1-.45 1-1zm-6.25-2.75l1.25 1.505L11.25 10l2.25 3h-7l1.75-2.25z" fill="#CDC9C3"/></svg>

<svg width="20" height="20" viewBox="0 0 20 20" fill="none" xmlns="http://www.w3.org/2000/svg">
<rect x="0.5" y="0.5" width="19" height="19" rx="9.5" fill="white" stroke="white"/>
<rect width="12" height="12" transform="translate(4 4)" fill="white"/>
<path d="M14.5 13.5V6.5C14.5 5.95 14.05 5.5 13.5 5.5H6.5C5.95 5.5 5.5 5.95 5.5 6.5V13.5C5.5 14.05 5.95 14.5 6.5 14.5H13.5C14.05 14.5 14.5 14.05 14.5 13.5ZM8.25 10.75L9.5 12.255L11.25 10L13.5 13H6.5L8.25 10.75Z" fill="#CDC9C3"/>
</svg>
